X:1
T: The Boys from Ballysimon
C:
R:Reel
Q: 232
K:G
M:4/4
L:1/8
dc|BA GB AB cA|dc AF G2 FG|AF DE FA GE|D2 DE D2 dc|Bc ((3BAG) AB cA|dc AF G2 FG|AF DE FA GE|D2 DE D2 FG|
Ad dg fg fd|ef ed ^cB cA|Ad dg fg fd|ef e^c d2 dc|BA GB AB cA|dc AF G2 FG|AF DE FA GE|D2 DE D2 dc|
Bc ((3BAG) AG FG|AB cA f2 ed|ec AF GB AF|D2 DE D2 dc|BG GB cB AG|AG FG g2 fg|ec AF GB AF|D2 DE D2 FG|
Ad eg fg fd|ef ed ^cA GF|Ad de fg fd|ef e^c de fg|ag fa gf ef|de fd cB AG|AF DE FA GE|D2 DE D2||
